icons/EmojiAngry_filled.svg

<svg width="24" height="24" viewBox="0 0 24 24" fill="none" xmlns="http://www.w3.org/2000/svg">
<path fill-rule="evenodd" clip-rule="evenodd" d="M2.25,12c0,-5.38478 4.36522,-9.75 9.75,-9.75c5.3848,0 9.75,4.36522 9.75,9.75c0,5.3848 -4.3652,9.75 -9.75,9.75c-5.38478,0 -9.75,-4.3652 -9.75,-9.75zM9.46967,11.0303c0.29289,0.2929 0.76773,0.2929 1.06063,0c0.2929,-0.2929 0.2929,-0.7677 0,-1.06063l-2.8284,-2.82843c-0.29289,-0.29289 -0.76776,-0.29289 -1.06066,0c-0.29289,0.2929 -0.29289,0.76777 0,1.06066l0.97214,0.97214c-0.36721,0.21773 -0.61338,0.6181 -0.61338,1.07596c0,0.6904 0.55964,1.25 1.25,1.25c0.45786,0 0.85823,-0.2462 1.07596,-0.6134zM15.75,11.5c0.6904,0 1.25,-0.5596 1.25,-1.25c0,-0.45786 -0.2462,-0.85823 -0.6134,-1.07596l0.9722,-0.97214c0.2929,-0.29289 0.2929,-0.76776 0,-1.06066c-0.2929,-0.29289 -0.7678,-0.29289 -1.0607,0l-2.8284,2.82843c-0.2929,0.29293 -0.2929,0.76773 0,1.06063c0.2929,0.2929 0.7677,0.2929 1.0606,0l0.1437,-0.1437c0.2178,0.3672 0.6181,0.6134 1.076,0.6134zM15.4697,17.0303c0.2929,0.2929 0.7677,0.2929 1.0606,0c0.2929,-0.2929 0.2929,-0.7677 0,-1.0606c-1.1724,-1.1725 -2.8814,-1.7197 -4.5303,-1.7197c-1.6489,0 -3.35785,0.5472 -4.53033,1.7197c-0.29289,0.2929 -0.29289,0.7677 0,1.0606c0.29289,0.2929 0.76777,0.2929 1.06066,0c0.82752,-0.8275 2.11857,-1.2803 3.46967,-1.2803c1.3511,0 2.6421,0.4528 3.4697,1.2803z" fill="#002B51"/>
</svg>

<svg width="24" height="24" viewBox="0 0 24 24" fill="none" xmlns="http://www.w3.org/2000/svg">
<path fill-rule="evenodd" clip-rule="evenodd" d="M2.25 12C2.25 6.61522 6.61522 2.25 12 2.25C17.3848 2.25 21.75 6.61522 21.75 12C21.75 17.3848 17.3848 21.75 12 21.75C6.61522 21.75 2.25 17.3848 2.25 12ZM9.32596 10.8866C9.10823 11.2538 8.70786 11.5 8.25 11.5C7.55964 11.5 7 10.9404 7 10.25C7 9.79214 7.24617 9.39177 7.61338 9.17404L6.64124 8.2019C6.34835 7.90901 6.34835 7.43414 6.64124 7.14124C6.93414 6.84835 7.40901 6.84835 7.7019 7.14124L10.5303 9.96967C10.8232 10.2626 10.8232 10.7374 10.5303 11.0303C10.2374 11.3232 9.76256 11.3232 9.46967 11.0303L9.32596 10.8866ZM15.75 11.5C16.4404 11.5 17 10.9404 17 10.25C17 9.79214 16.7538 9.39177 16.3866 9.17404L17.3588 8.2019C17.6517 7.90901 17.6517 7.43414 17.3588 7.14124C17.0659 6.84835 16.591 6.84835 16.2981 7.14124L13.4697 9.96967C13.1768 10.2626 13.1768 10.7374 13.4697 11.0303C13.7626 11.3232 14.2374 11.3232 14.5303 11.0303L14.674 10.8866C14.8918 11.2538 15.2921 11.5 15.75 11.5ZM15.4697 17.0303C15.7626 17.3232 16.2374 17.3232 16.5303 17.0303C16.8232 16.7374 16.8232 16.2626 16.5303 15.9697C15.3579 14.7972 13.6489 14.25 12 14.25C10.3511 14.25 8.64215 14.7972 7.46967 15.9697C7.17678 16.2626 7.17678 16.7374 7.46967 17.0303C7.76256 17.3232 8.23744 17.3232 8.53033 17.0303C9.35785 16.2028 10.6489 15.75 12 15.75C13.3511 15.75 14.6421 16.2028 15.4697 17.0303Z" fill="#002B51"/>
</svg>
